X:57
M:3/2
L:1/8
Q:1/2=100
K:G
d2cB AB c2Bcd2 | E2A4G2F2ED | d2cB efg2fga2 | D2G4A2B2AG ||
gfga b2aga2gf | g2e4a2f2ed | gfga babg agaf | g2G4B2A2G2 ||

